packages/astro-components-stencil/src/icons/audiotrack.svg

<svg width="24" height="24" viewBox="0 0 24 24" fill="none" xmlns="http://www.w3.org/2000/svg">
<path d="M12 5V13.55C11.06 13.01 9.89997 12.8 8.66997 13.23C7.32997 13.71 6.29997 14.9 6.05997 16.3C5.59997 19.04 7.91997 21.38 10.65 20.95C12.61 20.64 14 18.84 14 16.85V7H16C17.1 7 18 6.1 18 5C18 3.9 17.1 3 16 3H14C12.9 3 12 3.9 12 5Z" fill="black"/>
</svg>

<svg xmlns="http://www.w3.org/2000/svg" viewBox="0 0 24 24"><g xmlns="http://www.w3.org/2000/svg" id="audiotrack" fill-rule="nonzero">
            <path d="M12 5v8.55c-.94-.54-2.1-.75-3.33-.32-1.34.48-2.37 1.67-2.61 3.07a4.007 4.007 0 004.59 4.65c1.96-.31 3.35-2.11 3.35-4.1V7h2c1.1 0 2-.9 2-2s-.9-2-2-2h-2c-1.1 0-2 .9-2 2z"/>
        </g></svg>
